src/img/icons/instagram.svg

<svg fill="none" height="50" viewBox="0 0 50 50" width="50" xmlns="http://www.w3.org/2000/svg"><path d="m25 12.4219c-7 0-12.5781 5.6875-12.5781 12.5781 0 7 5.5781 12.5781 12.5781 12.5781 6.8906 0 12.5781-5.5781 12.5781-12.5781 0-6.8906-5.6875-12.5781-12.5781-12.5781zm0 20.7812c-4.4844 0-8.2031-3.6093-8.2031-8.2031 0-4.4844 3.6093-8.0938 8.2031-8.0938 4.4844 0 8.0938 3.6094 8.0938 8.0938 0 4.5938-3.6094 8.2031-8.0938 8.2031zm15.9688-21.2187c0 1.6406-1.3126 2.9531-2.9532 2.9531s-2.9531-1.3125-2.9531-2.9531 1.3125-2.95315 2.9531-2.95315 2.9532 1.31255 2.9532 2.95315zm8.3124 2.9531c-.2187-3.9375-1.0937-7.4375-3.9374-10.28125-2.8438-2.84375-6.3438-3.71875-10.2813-3.9375-4.0469-.21875-16.1875-.21875-20.2344 0-3.9375.21875-7.3281 1.09375-10.28122 3.9375-2.84376 2.84375-3.718755 6.34375-3.937505 10.28125-.21875 4.0469-.21875 16.1875 0 20.2344.21875 3.9375 1.093745 7.3281 3.937505 10.2812 2.95312 2.8438 6.34372 3.7188 10.28122 3.9375 4.0469.2188 16.1875.2188 20.2344 0 3.9375-.2187 7.4375-1.0937 10.2813-3.9375 2.8437-2.9531 3.7187-6.3437 3.9374-10.2812.2188-4.0469.2188-16.1875 0-20.2344zm-5.25 24.5c-.7656 2.1875-2.5156 3.8281-4.5937 4.7031-3.2813 1.3125-10.9375.9844-14.4375.9844-3.6094 0-11.2656.3281-14.4375-.9844-2.1875-.875-3.82812-2.5156-4.70312-4.7031-1.3125-3.1719-.98438-10.8281-.98438-14.4375 0-3.5-.32812-11.1562.98438-14.4375.875-2.07812 2.51562-3.71875 4.70312-4.59375 3.1719-1.3125 10.8281-.98437 14.4375-.98437 3.5 0 11.1562-.32813 14.4375.98437 2.0781.76563 3.7187 2.51563 4.5937 4.59375 1.3126 3.2813.9844 10.9375.9844 14.4375 0 3.6094.3282 11.2656-.9844 14.4375z" fill="#000"/></svg>

<svg width="50" height="50" viewBox="0 0 50 50" fill="none" xmlns="http://www.w3.org/2000/svg">
<path d="M25 12.4219C18 12.4219 12.4219 18.1094 12.4219 25C12.4219 32 18 37.5781 25 37.5781C31.8906 37.5781 37.5781 32 37.5781 25C37.5781 18.1094 31.8906 12.4219 25 12.4219ZM25 33.2031C20.5156 33.2031 16.7969 29.5938 16.7969 25C16.7969 20.5156 20.4062 16.9062 25 16.9062C29.4844 16.9062 33.0938 20.5156 33.0938 25C33.0938 29.5938 29.4844 33.2031 25 33.2031ZM40.9688 11.9844C40.9688 13.625 39.6562 14.9375 38.0156 14.9375C36.375 14.9375 35.0625 13.625 35.0625 11.9844C35.0625 10.3438 36.375 9.03125 38.0156 9.03125C39.6562 9.03125 40.9688 10.3438 40.9688 11.9844ZM49.2812 14.9375C49.0625 11 48.1875 7.5 45.3438 4.65625C42.5 1.8125 39 0.9375 35.0625 0.71875C31.0156 0.5 18.875 0.5 14.8281 0.71875C10.8906 0.9375 7.5 1.8125 4.54688 4.65625C1.70312 7.5 0.828125 11 0.609375 14.9375C0.390625 18.9844 0.390625 31.125 0.609375 35.1719C0.828125 39.1094 1.70312 42.5 4.54688 45.4531C7.5 48.2969 10.8906 49.1719 14.8281 49.3906C18.875 49.6094 31.0156 49.6094 35.0625 49.3906C39 49.1719 42.5 48.2969 45.3438 45.4531C48.1875 42.5 49.0625 39.1094 49.2812 35.1719C49.5 31.125 49.5 18.9844 49.2812 14.9375ZM44.0312 39.4375C43.2656 41.625 41.5156 43.2656 39.4375 44.1406C36.1562 45.4531 28.5 45.125 25 45.125C21.3906 45.125 13.7344 45.4531 10.5625 44.1406C8.375 43.2656 6.73438 41.625 5.85938 39.4375C4.54688 36.2656 4.875 28.6094 4.875 25C4.875 21.5 4.54688 13.8438 5.85938 10.5625C6.73438 8.48438 8.375 6.84375 10.5625 5.96875C13.7344 4.65625 21.3906 4.98438 25 4.98438C28.5 4.98438 36.1562 4.65625 39.4375 5.96875C41.5156 6.73438 43.1562 8.48438 44.0312 10.5625C45.3438 13.8438 45.0156 21.5 45.0156 25C45.0156 28.6094 45.3438 36.2656 44.0312 39.4375Z" fill="black"/>
</svg>
